src/components/atoms/Icon/icons/star-regular.svg

<svg xmlns="http://www.w3.org/2000/svg" viewBox="0 0 24 24">
  <path fill="currentColor" fill-rule="evenodd" d="M12,17.5 L7.32783438,19.9563028 C6.83898979,20.2133036 6.23436264,20.0253571 5.97736183,19.5365125 C5.87502276,19.3418521 5.83970808,19.118884 5.87688493,18.9021263 L6.76918916,13.6995935 L2.98932777,10.0151392 C2.59384419,9.62963801 2.58575189,8.99652475 2.9712531,8.60104117 C3.1247617,8.44355754 3.32590411,8.34107036 3.54354115,8.30944585 L8.76718111,7.55040653 L11.1032639,2.81698575 C11.3476862,2.32173209 11.9473121,2.11839309 12.4425657,2.36281539 C12.6397783,2.46014562 12.7994058,2.61977315 12.8967361,2.81698575 L15.2328189,7.55040653 L20.4564589,8.30944585 C21.0030037,8.38886347 21.3816852,8.89630632 21.3022676,9.44285118 C21.270643,9.66048821 21.1681559,9.86163062 21.0106722,10.0151392 L17.2308108,13.6995935 L18.1231151,18.9021263 C18.2164761,19.4464628 17.8508883,19.9634187 17.3065518,20.0567797 C17.0897942,20.0939566 16.8668261,20.0586419 16.6721656,19.9563028 L12,17.5 Z"/>
</svg>

<svg xmlns="http://www.w3.org/2000/svg" viewBox="0 0 24 24"><path fill="currentColor" fill-rule="evenodd" d="M12 17.5l-4.672 2.456a1 1 0 0 1-1.451-1.054l.892-5.202-3.78-3.685a1 1 0 0 1 .555-1.706l5.223-.759 2.336-4.733a1 1 0 0 1 1.794 0l2.336 4.733 5.223.76a1 1 0 0 1 .555 1.705L17.23 13.7l.892 5.202a1 1 0 0 1-1.45 1.054L12 17.5z"/></svg>
